al-beautyline/places/16/folder-network.svg

<?xml version="1.0" encoding="UTF-8" standalone="no"?>
<svg
   width="64"
   height="64"
   viewBox="0 0 64 64"
   fill="none"
   version="1.1"
   id="svg22"
   sodipodi:docname="globe.svg"
   inkscape:version="1.1.1 (3bf5ae0d25, 2021-09-20, custom)"
   xmlns:inkscape="http://www.inkscape.org/namespaces/inkscape"
   xmlns:sodipodi="http://sodipodi.sourceforge.net/DTD/sodipodi-0.dtd"
   xmlns:xlink="http://www.w3.org/1999/xlink"
   xmlns="http://www.w3.org/2000/svg"
   xmlns:svg="http://www.w3.org/2000/svg">
  <sodipodi:namedview
     id="namedview24"
     pagecolor="#ffffff"
     bordercolor="#666666"
     borderopacity="1.0"
     inkscape:pageshadow="2"
     inkscape:pageopacity="0.0"
     inkscape:pagecheckerboard="0"
     showgrid="false"
     inkscape:zoom="11.359375"
     inkscape:cx="22.096286"
     inkscape:cy="32"
     inkscape:window-width="1920"
     inkscape:window-height="1056"
     inkscape:window-x="1920"
     inkscape:window-y="0"
     inkscape:window-maximized="1"
     inkscape:current-layer="svg22" />
  <path
     d="M 14.6836,7.58499 C 19.6719,3.77707 25.8633,1.59999 32.1133,1.5129 38.3789,1.3704 44.6797,3.28228 49.8164,6.93186 56.2773,11.4404 60.9023,18.6327 62.1875,26.49 c 0.168,1.6506 -1.793,2.9569 -3.2188,2.1335 -0.9375,-0.3958 -1.1992,-1.4527 -1.375,-2.3591 -0.875,-4.279 -2.9648,-8.2334 -5.7617,-11.5346 -0.9375,0.9381 -1.9336,1.8169 -2.9804,2.6402 -0.5508,0.2731 -0.2501,0.9144 -0.1055,1.3419 3.4531,8.7677 3.3672,18.8773 -0.1602,27.6133 1.0821,0.8431 2.1094,1.7575 3.086,2.7194 3.1211,-3.5032 5.2422,-7.885 6.1132,-12.5163 0.1719,-1.1479 1.3008,-2.0464 2.4493,-1.8644 1.3242,0.099 2.2773,1.5636 1.8984,2.8461 -1.1914,6.4996 -4.6133,12.5321 -9.4922,16.9139 -4.9844,4.5007 -11.4883,7.2675 -18.168,7.608 C 27.2539,62.5148 19.8945,60.1873 14.2109,55.655 8.5703,51.1939 4.55468,44.631 3.26952,37.4862 2.85155,36.0612 4.07811,34.5096 5.54686,34.656 c 1.14063,0.0317 1.98828,1.049 2.11719,2.1494 0.85938,4.4769 2.94145,8.6965 5.92965,12.1085 1.1602,-1.132 2.3829,-2.2047 3.7149,-3.1231 -1.1133,-3.5823 -2.1445,-7.2358 -2.3008,-11.016 -0.3711,-5.5892 0.5156,-11.2456 2.582,-16.4429 -1.4922,-1.0213 -2.8593,-2.2088 -4.1601,-3.4596 -2.6953,3.226 -4.72659,7.0616 -5.59768,11.2139 -0.20703,0.958 -0.41406,2.1296 -1.4375,2.5373 -1.5,0.8471 -3.51563,-0.6491 -3.14453,-2.3591 C 4.52733,18.8662 8.75389,12.0737 14.6836,7.58499 Z m 8.7695,8.87461 C 29.457,19.2067 36.6406,19.0364 42.5273,16.0519 40.2812,12.1489 37.2461,8.72895 33.668,6.03332 33.3906,6.02936 32.8398,6.02145 32.5625,6.01353 28.8555,8.80811 25.707,12.3667 23.4531,16.4596 Z m -6.7734,-4.7263 c 0.9062,0.8867 1.8633,1.714 2.8789,2.4661 1.3672,-2.4305 2.9687,-4.72629 4.8203,-6.80441 -2.7774,1.01333 -5.4063,2.44625 -7.6992,4.33831 z M 42.2148,7.8304 c 1.5313,1.805 2.9102,3.7446 4.1055,5.795 0.7695,-0.6492 1.5117,-1.33 2.2266,-2.0385 -1.9336,-1.5398 -4.086,-2.759 -6.3321,-3.7565 z M 21.5312,20.5683 c -2.7773,7.2794 -2.875,15.5563 -0.2226,22.8831 7.3672,-3.4437 16.1875,-3.2181 23.4453,0.4236 2.8125,-7.5921 2.7578,-16.2213 -0.25,-23.7421 -7.1055,3.5625 -15.7383,3.7169 -22.9727,0.4354 z m 1.6172,27.0077 c 1.9922,3.8357 4.8008,7.1923 8.0664,9.975 1.2735,0.0752 2.5547,0.0475 3.8282,-0.0514 3.0664,-2.6957 5.9531,-5.8029 7.6836,-9.5554 C 36.6875,44.8408 29.289,44.6825 23.1484,47.576 Z m -6.3047,4.4532 c 1.9297,1.5477 4.0821,2.7827 6.3477,3.7525 -1.4805,-1.8367 -2.7734,-3.8198 -3.9063,-5.89 -0.8515,0.6689 -1.6679,1.3814 -2.4414,2.1375 z m 29.7422,-1.52 c -0.9375,1.6347 -1.9609,3.226 -3.1328,4.7025 1.7422,-0.863 3.4141,-1.8644 4.9453,-3.0757 -0.5937,-0.5541 -1.1992,-1.0964 -1.8125,-1.6268 z"
     fill="url(#paint0_linear)"
     id="path4"
     style="fill:url(#paint0_linear)" />
  <defs
     id="defs20">
    <pattern
       id="pattern0"
       patternContentUnits="objectBoundingBox"
       width="1"
       height="1">
      <use
         xlink:href="#image0"
         transform="scale(0.00520833)"
         id="use8" />
    </pattern>
    <linearGradient
       id="paint0_linear"
       x1="32.7017"
       y1="62.0945"
       x2="32.7017"
       y2="1.50548"
       gradientUnits="userSpaceOnUse">
      <stop
         stop-color="#FD2E00"
         id="stop11" />
      <stop
         offset="1"
         stop-color="#FFBB55"
         id="stop13" />
    </linearGradient>
    <clipPath
       id="clip0">
      <rect
         width="64"
         height="64"
         fill="white"
         id="rect16" />
    </clipPath>
    <image
       id="image0"
       width="192"
       height="192"
       xlink:href="data:image/png;base64,iVBORw0KGgoAAAANSUhEUgAAAMAAAADACAYAAABS3GwHAAAgAElEQVR42u29eXxU5fU/fs5z7+wz" />
  </defs>
</svg>

<svg width="64" height="64" viewBox="0 0 64 64" fill="none" xmlns="http://www.w3.org/2000/svg" xmlns:xlink="http://www.w3.org/1999/xlink">
<g clip-path="url(#clip0)">
<rect width="64" height="64" fill="url(#pattern0)"/>
<path d="M14.6836 7.58499C19.6719 3.77707 25.8633 1.59999 32.1133 1.5129C38.3789 1.3704 44.6797 3.28228 49.8164 6.93186C56.2773 11.4404 60.9023 18.6327 62.1875 26.49C62.3555 28.1406 60.3945 29.4469 58.9687 28.6235C58.0312 28.2277 57.7695 27.1708 57.5937 26.2644C56.7187 21.9854 54.6289 18.031 51.832 14.7298C50.8945 15.6679 49.8984 16.5467 48.8516 17.37C48.3008 17.6431 48.6015 18.2844 48.7461 18.7119C52.1992 27.4796 52.1133 37.5892 48.5859 46.3252C49.668 47.1683 50.6953 48.0827 51.6719 49.0446C54.793 45.5414 56.9141 41.1596 57.7851 36.5283C57.957 35.3804 59.0859 34.4819 60.2344 34.6639C61.5586 34.7629 62.5117 36.2275 62.1328 37.51C60.9414 44.0096 57.5195 50.0421 52.6406 54.4239C47.6562 58.9246 41.1523 61.6914 34.4726 62.0319C27.2539 62.5148 19.8945 60.1873 14.2109 55.655C8.5703 51.1939 4.55468 44.631 3.26952 37.4862C2.85155 36.0612 4.07811 34.5096 5.54686 34.656C6.68749 34.6877 7.53514 35.705 7.66405 36.8054C8.52343 41.2823 10.6055 45.5019 13.5937 48.9139C14.7539 47.7819 15.9766 46.7092 17.3086 45.7908C16.1953 42.2085 15.1641 38.555 15.0078 34.7748C14.6367 29.1856 15.5234 23.5292 17.5898 18.3319C16.0976 17.3106 14.7305 16.1231 13.4297 14.8723C10.7344 18.0983 8.70311 21.9339 7.83202 26.0862C7.62499 27.0442 7.41796 28.2158 6.39452 28.6235C4.89452 29.4706 2.87889 27.9744 3.24999 26.2644C4.52733 18.8662 8.75389 12.0737 14.6836 7.58499ZM23.4531 16.4596C29.457 19.2067 36.6406 19.0364 42.5273 16.0519C40.2812 12.1489 37.2461 8.72895 33.668 6.03332C33.3906 6.02936 32.8398 6.02145 32.5625 6.01353C28.8555 8.80811 25.707 12.3667 23.4531 16.4596ZM16.6797 11.7333C17.5859 12.62 18.543 13.4473 19.5586 14.1994C20.9258 11.7689 22.5273 9.47311 24.3789 7.39499C21.6015 8.40832 18.9726 9.84124 16.6797 11.7333ZM42.2148 7.8304C43.7461 9.6354 45.125 11.575 46.3203 13.6254C47.0898 12.9762 47.832 12.2954 48.5469 11.5869C46.6133 10.0471 44.4609 8.8279 42.2148 7.8304ZM21.5312 20.5683C18.7539 27.8477 18.6562 36.1246 21.3086 43.4514C28.6758 40.0077 37.4961 40.2333 44.7539 43.875C47.5664 36.2829 47.5117 27.6537 44.5039 20.1329C37.3984 23.6954 28.7656 23.8498 21.5312 20.5683ZM23.1484 47.576C25.1406 51.4117 27.9492 54.7683 31.2148 57.551C32.4883 57.6262 33.7695 57.5985 35.043 57.4996C38.1094 54.8039 40.9961 51.6967 42.7266 47.9442C36.6875 44.8408 29.289 44.6825 23.1484 47.576ZM16.8437 52.0292C18.7734 53.5769 20.9258 54.8119 23.1914 55.7817C21.7109 53.945 20.418 51.9619 19.2851 49.8917C18.4336 50.5606 17.6172 51.2731 16.8437 52.0292ZM46.5859 50.5092C45.6484 52.1439 44.625 53.7352 43.4531 55.2117C45.1953 54.3487 46.8672 53.3473 48.3984 52.136C47.8047 51.5819 47.1992 51.0396 46.5859 50.5092Z" fill="url(#paint0_linear)"/>
</g>
<defs>
<pattern id="pattern0" patternContentUnits="objectBoundingBox" width="1" height="1">
<use xlink:href="#image0" transform="scale(0.00520833)"/>
</pattern>
<linearGradient id="paint0_linear" x1="32.7017" y1="62.0945" x2="32.7017" y2="1.50548" gradientUnits="userSpaceOnUse">
<stop stop-color="#FD2E00"/>
<stop offset="1" stop-color="#FFBB55"/>
</linearGradient>
<clipPath id="clip0">
<rect width="64" height="64" fill="white"/>
</clipPath>
<image id="image0" width="192" height="192" xlink:href="data:image/png;base64,iVBORw0KGgoAAAANSUhEUgAAAMAAAADACAYAAABS3GwHAAAgAElEQVR42u29eXxU5fU/fs5z7+wz"/>
</defs>
</svg>
